themes/default/assets/images/icons/micro/micro-icon-interaction.svg

<?xml version="1.0" encoding="UTF-8"?>
<svg width="32px" height="32px" viewBox="0 0 32 32" version="1.1" xmlns="http://www.w3.org/2000/svg" xmlns:xlink="http://www.w3.org/1999/xlink">
    <!-- Generator: sketchtool 59 (101010) - https://sketch.com -->
    <title>56C34036-9CEF-4244-AC78-FC9D5C603FB2</title>
    <desc>Created with sketchtool.</desc>
    <g id="Page-1" stroke="none" stroke-width="1" fill="none" fill-rule="evenodd">
        <g id="Icons" transform="translate(-478.000000, -1329.000000)" fill-rule="nonzero">
            <g id="micro-icon-interaction" transform="translate(478.000000, 1329.000000)">
                <path d="M5.81818182,13.4206061 L5.81818182,13.4206061 C4.74862619,13.3436813 3.71681035,12.9930643 2.82181818,12.4024242 C2.47088253,12.1730836 2.14576223,11.9064849 1.85212121,11.6072727 C-0.581948303,9.17320321 -0.581948303,5.22679679 1.85212121,2.79272727 C4.28619073,0.358657757 8.23259715,0.358657757 10.6666667,2.79272727 C10.9194325,3.04368571 11.1498023,3.31623595 11.3551515,3.60727273 C11.9794256,4.48573615 12.3637925,5.5118285 12.470303,6.58424242 C12.5077914,6.94841564 12.2429611,7.27402672 11.8787879,7.31151514 C11.5146147,7.34900356 11.1890036,7.08417321 11.1515152,6.72 C11.0727332,5.8714998 10.7717146,5.05874961 10.2787879,4.36363636 C10.1047091,4.13305824 9.90996305,3.9188376 9.6969697,3.72363636 C8.37284557,2.38235487 6.39846416,1.91612746 4.61421111,2.52340153 C2.82995806,3.13067559 1.54992872,4.70454815 1.31896122,6.57510816 C1.08799372,8.44566817 1.94674699,10.283627 3.52969697,11.3066667 C4.23403094,11.7707566 5.04498992,12.0477508 5.88606061,12.1115152 C6.21691469,12.1518599 6.46563841,12.4327557 6.46563841,12.7660606 C6.46563841,13.0993655 6.21691469,13.3802613 5.88606061,13.4206061 L5.81818182,13.4206061 Z" id="Path" fill="#032663"></path>
                <path d="M11.0157576,22.3806061 C10.9482058,22.3900292 10.879673,22.3900292 10.8121212,22.3806061 C10.0958298,22.1504924 9.41405982,21.8242867 8.78545455,21.4109091 C8.31523471,21.0990516 7.87676804,20.7417825 7.47636364,20.3442424 C5.35095807,18.2292302 4.51534798,15.1409878 5.28429961,12.2428265 C6.05325123,9.34466516 8.30994253,7.07688447 11.2042997,6.2937355 C14.0986569,5.51058652 17.1909582,6.33104822 19.3163636,8.44606061 C19.6739462,8.77941134 19.9986707,9.14635004 20.2860606,9.54181818 C20.7908879,10.2589835 21.1802542,11.0508042 21.44,11.8884848 C21.5471098,12.2365916 21.3517431,12.6056175 21.0036364,12.7127273 C20.6555296,12.819837 20.2865037,12.6244704 20.1793939,12.2763636 C19.9595757,11.5831647 19.6323652,10.9287437 19.209697,10.3369697 C18.9727792,10.0122868 18.713568,9.70447347 18.4339394,9.41575758 C16.3639329,7.34520888 13.2317628,6.76498181 10.5574375,7.95665428 C7.88311227,9.14832675 6.22014586,11.8652543 6.37555794,14.7889414 C6.53097002,17.7126284 8.47259442,20.2379496 11.2581818,21.1393939 C11.5568524,21.2462355 11.7371259,21.5505935 11.6872882,21.8638592 C11.6374504,22.177125 11.3716264,22.4105128 11.0545455,22.4193939 L11.0157576,22.3806061 Z" id="Path" fill="#A8C5DD"></path>
                <path d="M20.7321212,32.0001374 C18.7262567,32.0024678 16.7638374,31.4157652 15.0884848,30.3127273 C14.5114028,29.9250503 13.9724202,29.4834742 13.4787879,28.9939394 C9.46217152,24.977323 9.46217152,18.4651012 13.4787879,14.4484848 C17.4954042,10.4318685 24.0076261,10.4318685 28.0242424,14.4484848 L28.0242424,14.4484848 C28.4385278,14.8626352 28.8179928,15.3102093 29.1587879,15.7866667 C31.3878741,18.9267194 31.6728701,23.0499579 29.8969951,26.4668314 C28.12112,29.8837049 24.5828824,32.019868 20.7321212,32.0001374 L20.7321212,32.0001374 Z M20.7321212,12.7418182 C17.0810633,12.72807 13.7851944,14.926388 12.395152,18.3025093 C11.0051096,21.6786306 11.7976898,25.5602759 14.4,28.1212121 C14.8305915,28.5500653 15.3014479,28.9364923 15.8060606,29.2751515 C19.4198072,31.7650108 24.3038272,31.2780795 27.3548545,28.1237497 C30.4058818,24.9694199 30.7299767,20.0718986 28.1212121,16.5430303 C27.8327888,16.12742 27.5083014,15.7380351 27.1515152,15.3793939 C25.4541679,13.6716807 23.1397816,12.7207546 20.7321212,12.7418182 Z" id="Shape" fill="#2969F6"></path>
                <path d="M27.52,8.56242424 C27.52,8.56242424 27.52,8.56242424 27.52,8.48484848 C27.5183828,8.45254548 27.5183828,8.42018179 27.52,8.38787879 L28.1309091,4.11151515 C28.1830241,3.75305818 27.9362341,3.41967519 27.5781818,3.36484848 C27.2178846,3.31855147 26.8864638,3.56819311 26.8315152,3.92727273 L26.4048485,6.83636364 C19.8690909,0.213333333 15.9709091,1.93939394 15.7963636,1.93939394 C15.4643234,2.08934762 15.316713,2.48008093 15.4666667,2.81212121 C15.6166204,3.14416149 16.0073537,3.29177185 16.3393939,3.14181818 C16.3393939,3.14181818 19.5781818,1.93939394 25.289697,7.54424242 L22.6521212,7.40848485 C22.2932956,7.39714807 21.9894721,7.67101712 21.9636364,8.02909091 C21.9471029,8.38979838 22.2237594,8.69671411 22.5842424,8.71757576 L26.889697,8.95030303 L26.889697,8.95030303 C26.9793366,8.95184542 27.0683721,8.93535737 27.1515152,8.90181818 L27.1515152,8.90181818 L27.2193939,8.90181818 C27.2680978,8.87848272 27.3137021,8.84916568 27.3551515,8.81454545 L27.3551515,8.81454545 C27.3551515,8.81454545 27.3551515,8.81454545 27.4036364,8.75636364 L27.4909091,8.64 C27.4909091,8.64 27.52,8.57212121 27.52,8.56242424 Z" id="Path" fill="#032663"></path>
            </g>
        </g>
    </g>
</svg>

<svg width="32" height="32" xmlns="http://www.w3.org/2000/svg"><g fill-rule="nonzero" fill="none"><path d="M5.818 13.42a6.255 6.255 0 01-2.996-1.018 5.818 5.818 0 01-.97-.795 6.233 6.233 0 119.503-8 6.196 6.196 0 011.115 2.977.663.663 0 11-1.318.136 4.848 4.848 0 00-.873-2.356 4.752 4.752 0 00-.582-.64 4.916 4.916 0 10-6.167 7.583 4.965 4.965 0 002.356.805.66.66 0 010 1.309h-.068z" fill="#032663"/><path d="M11.016 22.38a.737.737 0 01-.204 0 8.32 8.32 0 01-3.336-2.036 8.393 8.393 0 1111.84-11.898c.358.333.683.7.97 1.096a8.398 8.398 0 011.154 2.346.66.66 0 11-1.26.388 6.953 6.953 0 00-.97-1.939 8.67 8.67 0 00-.776-.921 7.07 7.07 0 10-7.176 11.723.66.66 0 01-.203 1.28l-.04-.038z" fill="#A8C5DD"/><path d="M20.732 32a10.241 10.241 0 01-5.644-1.687 10.987 10.987 0 01-1.61-1.32c-4.016-4.016-4.016-10.528 0-14.545 4.017-4.016 10.53-4.016 14.546 0A10.27 10.27 0 0120.732 32zm0-19.258a8.98 8.98 0 00-6.332 15.38c.43.428.901.814 1.406 1.153a8.98 8.98 0 0012.315-12.732 8.61 8.61 0 00-.97-1.164 8.94 8.94 0 00-6.419-2.637z" fill="#2969F6"/><path d="M27.52 8.562v-.077a.97.97 0 010-.097l.61-4.276a.66.66 0 00-.552-.747.67.67 0 00-.746.562l-.427 2.91C19.869.212 15.97 1.938 15.796 1.938a.66.66 0 00.543 1.203s3.24-1.203 8.95 4.402l-2.637-.136a.67.67 0 00-.688.621.66.66 0 00.62.689l4.306.232a.67.67 0 00.262-.048h.067a.65.65 0 00.136-.087l.049-.059.087-.116s.029-.068.029-.078z" fill="#032663"/></g></svg>
